icons/desktop/16/svg/sidebar-right-16.svg

<svg width="16" height="16" viewBox="0 0 16 16" fill="none" xmlns="http://www.w3.org/2000/svg">
<path d="M13 10.5H10V9H13V10.5Z" fill="black"/>
<path d="M13 7H10V5.5H13V7Z" fill="black"/>
<path fill-rule="evenodd" clip-rule="evenodd" d="M14 2C15.1042 2 16 2.89579 16 4V12C16 13.1042 15.1042 14 14 14H2C0.895786 14 0 13.1042 0 12V4C0 2.89579 0.895786 2 2 2H14ZM2 3.5C1.72421 3.5 1.5 3.72421 1.5 4V12C1.5 12.2758 1.72421 12.5 2 12.5H7V3.5H2ZM8.5 12.5H14C14.2758 12.5 14.5 12.2758 14.5 12V4C14.5 3.72421 14.2758 3.5 14 3.5H8.5V12.5Z" fill="black"/>
</svg>

<!-- This Source Code Form is subject to the terms of the Mozilla Public
   - License, v. 2.0. If a copy of the MPL was not distributed with this
   - file, You can obtain one at http://mozilla.org/MPL/2.0/. -->
<svg xmlns="http://www.w3.org/2000/svg" width="16" height="16" fill="context-fill" fill-opacity="context-fill-opacity" viewBox="0 0 16 16">
    <path d="M13 10.5h-3V9h3zM13 7h-3V5.5h3z" />
    <path d="M14 2a2 2 0 0 1 2 2v8a2 2 0 0 1-2 2H2a2 2 0 0 1-2-2V4a2 2 0 0 1 2-2zM2 3.5a.5.5 0 0 0-.5.5v8a.5.5 0 0 0 .5.5h5v-9zm6.5 9H14a.5.5 0 0 0 .5-.5V4a.5.5 0 0 0-.5-.5H8.5z" />
</svg>
